X:16
T:16. Kinnegad Slashers
M:6/8
L:1/8
Q:3/8=120
Z:Peter Dunk, VMP, 2011
K:D
A | d>AF d>AF | ABA ABc | d>AF d>AF | Eee efg | d>AF d>AF | ABA A2 g | fed c>BA | Add d2 :|!
|:dfa afd | efe e2 f | dfa afd | fga afd | dfa afd | efe e2 f | f>ed c>BA | Add d3 :|!

